X: 10303
T: The JOLLY OLD WOMAN
O: Irish air.
Q: "Jig time."
%R: air, jig
B: W. Hamilton "Universal Tune-Book" Vol. 1 Glasgow 1844 p.30 #3
S: http://imslp.org/wiki/Hamilton's_Universal_Tune-Book_(Various)
Z: 2016 John Chambers <jc:trillian.mit.edu>
M: 6/8
L: 1/8
K: A
%%slurgraces yes
%%graceslurs yes
% - - - - - - - - - - - - - - - - - - - - - - - - -
E |\
EAA {B}A>GA | {GA}B2A G>AB | {B}c2B A>Bc | {c}B>AB {a}g^fg |\
e2d c>de | dBA GAB | {AB}c>BA GED | EAA A2 :|
|: e |\
e^f^g a2c' | b2(3(c'/b/a/) =g2b | a2(3(b/a/g/) e2^f | g2(3(a/g/f/) d2=f |\
e2(3(f/e/d/) c2e | dBA GAB | c>BA GED | EAA A2 :|
% - - - - - - - - - - - - - - - - - - - - - - - - -

%%sep 1 1 500
%%sep 1 1 500

